**kern	**kern
*staff2	*staff1
*clefF4	*clefG2
*k[]	*k[]
*M3/4	*M3/4
*C:	*C:
=-	=-
8.GG'L 8.G'	8.B'L 8.g'
16GG'Jk 16G'	16B'Jk 16g'
=216	=216
4GG' 4G'	4B' 4g'
4EE' 4E'	4G' 4c#' 4g'
4DD' 4D'	4B-' 4d' 4g'
=217	=217
4CC#' 4C#'	4A' 4e' 4g'
4r	4r
(16c#LL	8r
16eJJ)	.
8r	(16eeLL 16gg
.	16aJJ)
=218	=218
(16c#LL	8r
16eJJ)	.
8r	(16eeLL 16gg
.	16aJJ)
(16dLL	8r
16fJJ)	.
8r	(16ddLL 16ff
.	16aJJ)
(16eLL	8r
16gJJ)	.
8r	(16cc#LL 16ee
.	16aJJ)
=219	=219
4d 4f	4dd 4ff
4r	4r
8.DD'L 8.D'	8.F'L 8.A' 8.f'
16DD'Jk 16D'	16F'Jk 16A' 16f'
=220	=220
4DD' 4D'	4F' 4A' 4f'
4DD' 4D'	4F' 4B' 4f'
4CC' 4C'	4A-' 4c' 4f'
=221	=221
4BBB' 4BB'	4G' 4d' 4f'
4r	4r
(16dLL	8r
16fJJ)	.
8r	(16bLL 16dd
.	16gJJ)
=222	=222
(16cLL	8r
16eJJ)	.
8r	(16ccLL 16ee
.	16gJJ)
(16BLL	8r
16dJJ)	.
8r	(16ddLL 16ff
.	16gJJ)
(16cLL	8r
16eJJ)	.
8r	(16ccLL 16ee
.	16gJJ)
=223	=223
4G 4d	4b 4dd
4r	4r
=	=
*-	*-
